!!!SOCIAL_FUNCTION:	additional Mide Songs
!!!PDT:	1909
!!!OTL: No_90_They_Are_Making_Me_Old.krn
!!!REG: Great_Lakes
!!!LANG: Non-Tone
!!!LING_GROUP: Algonquin
**kern	**kern
*staff2	*staff1
*clefF4	*clefF4
*k[b-]	*k[b-]
*M3/4	*M3/4
8GG/L	8d\L
8GG/J	8d\J
8GG/L	8.d\L
8GG/J	.
.	16f\Jk
=1	=1
8GG/L	4.f\
8GG/J	.
8GG/L	.
8GG/J	8f\
8GG/L	4f\
8GG/J	.
=2	=2
2.r	4.d\
.	8d\
.	4d\
=3	=3
2.r	4c\
.	4A\
.	8A\L
.	8c\J
=4	=4
2.r	4.c\
.	8c\
.	4c\
=5	=5
2.r	4.A\
.	8A\
.	4A\
=6||	=6||
*M4/4	*M4/4
1r	4A\
.	4G\
.	4F\
.	8G\L
.	8F\J
=7||	=7||
*M3/4	*M3/4
2.r	4.D\
.	8D\
.	8D\L
.	8D\J
=8	=8
2.r	4.D\
.	8G\
.	4G\
=9	=9
2.r	4.G\
.	8G\
.	4G\
=10	=10
2.r	8G\L
.	8G\J
.	8.F\L
.	16F\Jk
.	4F\
=11	=11
2.r	4.D\
.	8D\
.	8D\L
.	8D\J
=12	=12
2.r	4.D\
.	8D\
.	4D\
=13	=13
1r	8D\L
.	8D\
.	8.D\
.	16D\Jk
.	4D\
.	4D\
==	==
*-	*-
